X:1
T:Plaine d'ennuy
T:Plaine d'ennuy
T:anonymus
C:anonymus
%%score [ 1 [ 2 3 ] 4 ]
L:1/8
Q:1/4=120
M:2/2
K:C
V:1 treble nm="Soprano" snm="S"
V:2 treble-8 nm="Tenor 1" snm="T 1"
V:3 treble-8 nm="Tenor 2" snm="T 2"
V:4 bass nm="Bass" snm="B"
V:1
 z8 | A4 G2 A2 | E2 c2 B2 A2- | A2 G2 A2 E2 | FD F2 E2 D2- | D2 C2 D2 A2 | G2 A2 E2 c2 | %7
w: |Plai- ne d'en-|nuy de lon- gue|_ main at- ten-||* * te, plai-|ne d'en- nuy de|
 B2 A2 G2 F2 | EFGA BA c2 | B2 A4 G2 | A4 z4 | z2 A4 G2 | A4 G2 G2 | c6 B2 | A2 G2 F4 | E6 E2 | %16
w: lon- gue main at-|ten- * * * * * *||te|de des-|plai- sir en|vi- e|lan- gou- reu-|se dis|
 F2 G2 E2 e2 | e2 d2 c2 B2 | A2 G2 F2 E2 | D4 C2 c2 | c2 B2 A2 G2 | F2 E4 D2 | E8- | E8 | z4 E4 | %25
w: a par moy,- dis|a par moy que|se- roy bien heu-|reu- se, que|se- roy bien heu-|reu- * *|se|_|se|
 A2 A2 G2 G2 | c6 B2 | A2 G2 A2 B2- | BA A4 G2 | A2 E2 A2 A2 | G2 G2 E2 F2 | G4 z4 | z4 E4 | %33
w: par la mort es-|toit ma|vie- es- tain- *||cte, es- toit ma|vie- es- tain- *|te|se|
 A2 A2 G2 G2 | c6 B2 | A2 G2 A2 B2- | BA A4 G2 | A8 |] %38
w: par la mort es-|toit ma|vie es- tain- *||te.|
V:2
 d4 c2 d2 | A2 f2 e2 d2 | c2 e3 d c2 | B4 A4 | z2 A2 c2 B2 | A8 | z2 A2 cdef | g2 f2 e2 dc | %8
w: Plai- ne d'en-|nuy de lon- gue|min at- * *|ten- te|[plai- ne d'en-|nuy,]|plai- ne _ _ _|_ d'en- nuy de _|
 B2 g2 f2 e2 | f4 e4 | z2 c4 B2 | c3 d e4- | e8 | z2 e2 e2 e2 | c2 c2 d3 c | B4 A2 c2 | %16
w: lon- gue main at-|ten- te|de des-|plai- * sir|_|en vie lan-|gou- reu- * *|* se, dis|
 d2 d2 c2 g2 | g2 f2 e3 d | cA B4 A2- | A2 G2 ABcd | ef g2 e2 e2 | d2 c4 BA | B2 z G c2 c2 | %23
w: a par moy que|se- roy bien _|_ _ heu- reu-||* * * se [bien|heu- reu- * *|se] se par la|
 B4 z2 A2 | d2 d2 c2 e2 | e2 d2 e2 g2- | g2 f2 g4 | z2 e2 f2 g2 | d4 e4 | c3 d e4 | z2 G2 c2 c2 | %31
w: mort, se|par la mort es-|tait ma vie es-|* tain- cte,|es- tait ma|vie es-|tain- * cte,|se par la|
 B4 z2 A2 | d2 d2 c2 e2 | e2 d2 e2 g2- | g2 f2 g4 | z2 e2 f2 g2 | d4 e4 | e8 |] %38
w: mort, se|par la mort es-|tait ma vie es-|* tain- cte,|ma vie es-|tain- *|cte.|
V:3
 z8 | z8 | A4 G2 A2 | E4 c4 | B2 A3 G F2 | E4 D2 D2 | E2 F2 G4 | z2 c2 B2 A2 | GABc d2 e2 | %9
w: ||Plai- ne d'en-|nuy de|lon- * * *|gue main at-|ten- * te,|de lon- gue|main _ _ _ _ at-|
 d3 c B4 | A3 G E4 | z2 c4 B2 | c4 B4 | A3 G E2 E2 | F2 G2 AF A2- |"^#" A2 G2 A2 A2 | %16
w: ten- * *|* * te|de des-|plai- sir|en _ _ vi-|e lan- gou- * reu-|* * se, dis|
 A2 B2 G2 c2- | cB A2 G4 | z2 G2 A4 | D4 C2 c2 | e2 d2 c3 B | A2 G2 A4 | G4 z4 | E4 A2 A2 | %24
w: a par moy [dis|_ a par moy],|dis a|par moy que|se- roy bien _|_ heu- reu-|se|se par la|
 G2 G2 c3 B | A2 A2 B2 e2- | e2 c2 d4 | e4 c2 d2- | dc A2 B4 | A2 A2 c4 | B4 A4 | z2 E2 A2 A2 | %32
w: mort es- tait _|_ ma vie es-|* tain cte,|[ma vie es-|* * * tain-|te] se par|la mort|se par la|
 G2 G2 c3 B | A2 A2 B2 e2- | e2 c2 d4 | e4 c2 d2- | dc A2 B4 | A8 |] %38
w: mort es- toit _|_ ma vie es-|* tain- *|||cte.|
V:4
 z8 | z8 | z8 |"^#" z8 | D,4 C,2 D,2 | A,,4 z2 F,2 | E,2 D,2 C,3 D, | E,2 F,2 G,2 D,2 | %8
w: ||||Plai- ne d'en-|nuy de|lon- gue main _|_ at- ten- *|
 E,4 D,2 C,2 | D,4 E,4 | z2 A,4 G,2 | A,4 E,4 | z2 A,,2 E,2 E,2 | A,,2 A,2 A,2 G,2 | F,2 E,2 D,4 | %15
w: |* te|de des-|plai- sir|de des- plai-|sir en vi- e|lan- gou- reu-|
 E,4 z2 A,2 | D,2 G,2 C,4- | C,2 D,2 E,2 E,2 | F,2 E,2 D,2 C,2 | B,,4 A,,2 A,,2 | %20
w: se, dis|a par moy|_ que se- roy|bien heu- reu- *|* se, que|
 C,2 G,,2 A,,2 C,2 | D,2 E,2 F,4 |"^#" E,2 E,2 A,2 A,2 | G,2 G,2 C4- | C2 B,2 A,3 G, | %25
w: se- roy bien heu-|reu- * *|se se par la|mort es- toit|_ ma vie es-|
 F,4 E,2 E,2 | A,2 A,2 G,2 G,2 | C3 B, A,2 G,2 | F,4 E,4 | A,,8 |"^#" z2 E,2 A,2 A,2 | %31
w: tain- cte, se|par la mort es-|toit ma vie es-|tain- *|cte,|se par la|
 G,2 G,2 C4- | C2 B,2 A,3 G, | F,4 E,2 E,2 | A,2 A,2 G,2 G,2 | C3 B, A,2 G,2 | F,4 E,4 | A,,8 |] %38
w: mort es- toit|_ ma vie es-|tain- cte, se|par la mot es-|toit ma vie es-|tain- *|cte.|

